icons/svgs/pause-outline.svg

<svg width="24" height="24" viewBox="0 0 24 24" fill="none" xmlns="http://www.w3.org/2000/svg">
<path d="M8.125 6.375V17.625H10V6.375H8.125ZM6.25 6.375C6.25 5.35938 7.07031 4.5 8.125 4.5H10C11.0156 4.5 11.875 5.35938 11.875 6.375V17.625C11.875 18.6797 11.0156 19.5 10 19.5H8.125C7.07031 19.5 6.25 18.6797 6.25 17.625V6.375ZM15 6.375V17.625H16.875V6.375H15ZM13.125 6.375C13.125 5.35938 13.9453 4.5 15 4.5H16.875C17.8906 4.5 18.75 5.35938 18.75 6.375V17.625C18.75 18.6797 17.8906 19.5 16.875 19.5H15C13.9453 19.5 13.125 18.6797 13.125 17.625V6.375Z" fill="black"/>
</svg>

<svg xmlns="http://www.w3.org/2000/svg" width="24" height="24" fill="currentColor" class="icon-pause-outline" viewBox="0 0 24 24">
  <mask id="a" width="13" height="16" x="6" y="4" maskUnits="userSpaceOnUse" style="mask-type:alpha">
    <path d="M8.125 6.375v11.25H10V6.375zm-1.875 0c0-1.016.82-1.875 1.875-1.875H10c1.016 0 1.875.86 1.875 1.875v11.25c0 1.055-.86 1.875-1.875 1.875H8.125a1.85 1.85 0 0 1-1.875-1.875zm8.75 0v11.25h1.875V6.375zm-1.875 0c0-1.016.82-1.875 1.875-1.875h1.875c1.016 0 1.875.86 1.875 1.875v11.25c0 1.055-.86 1.875-1.875 1.875H15a1.85 1.85 0 0 1-1.875-1.875z"/>
  </mask>
  <g mask="url(#a)">
    <path d="M0 0h24v24H0z"/>
  </g>
</svg>
